resources/svg/ghost.svg

<svg xmlns="http://www.w3.org/2000/svg" viewBox="0 0 15 15" fill="currentColor"><path fill-rule="evenodd" clip-rule="evenodd" d="M1 6.5C1 2.91015 3.91015 0 7.5 0C11.0899 0 14 2.91015 14 6.5V13.0858C14 14.143 13.143 15 12.0858 15C11.5781 15 11.0912 14.7983 10.7322 14.4393L10.6464 14.3536C10.4201 14.1272 10.113 14 9.79289 14H9.70711C9.38696 14 9.07993 14.1272 8.85355 14.3536L8.70711 14.5C8.38696 14.8201 7.95275 15 7.5 15C7.04725 15 6.61304 14.8201 6.29289 14.5L6.14645 14.3536C5.92007 14.1272 5.61304 14 5.29289 14H5.20711C4.88696 14 4.57993 14.1272 4.35355 14.3536L4.26777 14.4393C3.90878 14.7983 3.42189 15 2.91421 15C1.85702 15 1 14.143 1 13.0858V6.5ZM5 6H6V5H5V6ZM9 6H10V5H9V6ZM4.9001 7.69995C6.2001 9.43328 8.8001 9.43328 10.1001 7.69995L10.9001 8.29995C9.2001 10.5666 5.8001 10.5666 4.1001 8.29995L4.9001 7.69995Z" fill="black"/></svg>

<svg xmlns="http://www.w3.org/2000/svg" viewBox="0 0 15 15" fill="currentColor"><path fill-rule="evenodd" clip-rule="evenodd" d="M1 6.5a6.5 6.5 0 0113 0v6.586a1.914 1.914 0 01-3.268 1.353l-.086-.085A1.207 1.207 0 009.793 14h-.086c-.32 0-.627.127-.853.354l-.147.146a1.707 1.707 0 01-2.414 0l-.147-.146A1.207 1.207 0 005.293 14h-.086c-.32 0-.627.127-.853.354l-.086.085A1.914 1.914 0 011 13.086V6.5zM5 6h1V5H5v1zm4 0h1V5H9v1zM4.9 7.7a3.25 3.25 0 005.2 0l.8.6c-1.7 2.267-5.1 2.267-6.8 0l.8-.6z" fill="currentColor"/></svg>
